X:1
M:4/4
L:1/4
V:S clef=treble
V:A clef=treble
V:T clef=bass
V:B clef=bass
K:C
[V:S] E2 G2 | G F E D | E/F/ G A G | G2 F2 |]
[V:A] C2 E2 | E D C B, | C E F E | E2 D2 |]
[V:T] G,2 C2 | C A, G, G, | G, C C C | C2 A,2 |]
[V:B] C,2 C2 | E, F, G, G,, | C, A,, F, C, | C,2 D,2 |]
